Newaita-dark/apps/16/com.github.alcinnz.odysseus.svg

<svg height="16" viewBox="0 0 16 16" width="16" xmlns="http://www.w3.org/2000/svg" xmlns:xlink="http://www.w3.org/1999/xlink"><linearGradient id="a"><stop offset="0" stop-opacity=".313726"/><stop offset=".222222" stop-opacity=".27451"/><stop offset="1" stop-opacity="0"/></linearGradient><radialGradient id="b" cx="450.908936" cy="189.579361" gradientTransform="matrix(.00000009 -.0390662 -.0703192 -.00000005 22.261576 31.797665)" gradientUnits="userSpaceOnUse" r="21.166656" xlink:href="#a"/><radialGradient id="c" cx="450.908936" cy="189.579361" gradientTransform="matrix(-.00000009 .0390662 .0703192 .00000005 -6.385059 -3.763741)" gradientUnits="userSpaceOnUse" r="21.166656" xlink:href="#a"/><radialGradient id="d" cx="450.908936" cy="189.579361" gradientTransform="matrix(-.00000009 -.0390662 .0703192 -.00000005 -6.385059 31.797665)" gradientUnits="userSpaceOnUse" r="21.166656" xlink:href="#a"/><radialGradient id="e" cx="450.908936" cy="189.579361" gradientTransform="matrix(.00000009 .0390662 -.0703192 .00000005 22.261575 -3.763741)" gradientUnits="userSpaceOnUse" r="21.166656" xlink:href="#a"/><linearGradient id="f" gradientTransform="matrix(.00668003 0 0 .031253 6.232693 6.719392)" gradientUnits="userSpaceOnUse" x1="255.323059" x2="255.323044" y1="233.5" y2="254.666656"><stop offset="0" stop-opacity=".27451"/><stop offset="1" stop-opacity="0"/></linearGradient><linearGradient id="g" gradientUnits="userSpaceOnUse" x1="7.938262" x2="7.938262" y1="1.44805249998" y2="14.0169675"><stop offset="0" stop-color="#4db6ac"/><stop offset="1" stop-color="#26a69a"/></linearGradient><linearGradient id="h" gradientUnits="userSpaceOnUse" x1="7.938262" x2="7.938262" y1="14.0169675" y2="1.44805249998"><stop offset="0" stop-color="#bdbdbd"/><stop offset="1" stop-color="#e0e0e0"/></linearGradient><linearGradient id="i" gradientUnits="userSpaceOnUse" x1="6.945977825" x2="6.945977825" y1="9.10280365475" y2="5.70069280119"><stop offset="0" stop-color="#8d6e63"/><stop offset="1" stop-color="#a1887f"/></linearGradient><linearGradient id="j" gradientUnits="userSpaceOnUse" x1="6.945982525" x2="6.945982525" y1="8.25228003571" y2="6.55121984643"><stop offset="0" stop-color="#424242"/><stop offset="1" stop-color="#616161"/></linearGradient><path d="m9.097656 14.015625h1.320313v-.660156h-1.320313zm0 0" fill="url(#b)"/><path d="m6.78125 14.015625h-1.324219v.664063h1.324219zm0 0" fill="url(#c)"/><path d="m6.78125 14.015625h-1.324219v-.660156h1.324219zm0 0" fill="url(#d)"/><path d="m9.097656 14.015625h1.320313v.664063h-1.320313zm0 0" fill="url(#e)"/><path d="m6.78125 13.851562h2.316406v.828126h-2.316406zm0 0" fill="url(#f)"/><path d="m7.9375 1.449219c3.472656 0 6.285156 2.8125 6.285156 6.285156 0 3.46875-2.8125 6.28125-6.285156 6.28125-3.46875 0-6.285156-2.8125-6.285156-6.28125 0-3.472656 2.816406-6.285156 6.285156-6.285156zm0 0" fill="url(#g)"/><path d="m7.9375 14.015625c-3.480469 0-6.285156-2.800781-6.285156-6.28125 0-.023437 0-.042969 0-.0625.035156 3.453125 2.824218 6.222656 6.285156 6.222656s6.253906-2.769531 6.285156-6.222656v.0625c0 3.480469-2.804687 6.28125-6.285156 6.28125zm0 0" fill-opacity=".196078"/><path d="m7.9375 1.449219c-3.480469 0-6.285156 2.800781-6.285156 6.285156v.058594c.035156-3.453125 2.824218-6.222657 6.285156-6.222657s6.253906 2.769532 6.285156 6.222657c0-.019531 0-.039063 0-.058594 0-3.484375-2.804687-6.285156-6.285156-6.285156zm0 0" fill="#fff" fill-opacity=".392157"/><path d="m327.843692 160.839109c4.624559-2.624749 6.749356-8.124224 4.749547-13.123747l-50.37019-129.73761c-2.374773-5.999427-9.624081-8.499189-15.123556-5.249499l-36.746491 21.122983c-5.624463 3.24969-6.999331 10.748973-2.874725 15.748496l87.116681 108.614628c3.124701 3.999618 8.749164 5.12451 13.248734 2.624749zm0 0" style="fill:#fff;fill-opacity:.392157;stroke-width:3;stroke-linecap:round;stroke-linejoin:round;stroke:#212121" transform="matrix(.031253 0 0 .031253 0 6.719392)"/><path d="m180.107801-96.011363c-4.624559 2.62475-6.624368 8.124224-4.749547 13.123747l50.495178 129.737611c2.374773 5.999427 9.499093 8.499188 15.123556 5.249498l36.621503-21.122983c5.624463-3.249689 6.999331-10.748973 2.999713-15.748496l-87.116681-108.614627c-3.249689-3.999619-8.874152-5.124511-13.373722-2.62475zm0 0" fill="none" stroke="#212121" stroke-linecap="round" stroke-linejoin="round" stroke-width="3" transform="matrix(.031253 0 0 .031253 0 6.719392)"/><path d="m5.628906 3.71875c-.144531.082031-.207031.253906-.148437.410156l1.578125 4.054688c.074218.1875.296875.265625.472656.164062l1.144531-.660156c.175781-.101562.21875-.335938.09375-.492188l-2.722656-3.394531c-.101563-.125-.277344-.160156-.417969-.082031zm0 0" fill-opacity=".235294"/><path d="m7.9375 1.402344c-3.507812 0-6.332031 2.824218-6.332031 6.332031 0 3.503906 2.824219 6.328125 6.332031 6.328125s6.332031-2.824219 6.332031-6.328125c0-3.507813-2.824219-6.332031-6.332031-6.332031zm0 .09375c3.457031 0 6.238281 2.78125 6.238281 6.238281 0 3.453125-2.78125 6.234375-6.238281 6.234375s-6.238281-2.78125-6.238281-6.234375c0-3.457031 2.78125-6.238281 6.238281-6.238281zm0 0" fill="#212121"/><path d="m4.960938 10.378906s.664062-.804687 1.695312-.992187c1.949219-.34375 3.113281-1.058594 3.765625-1.746094.816406-.863281 1.15625-1.894531 1.15625-1.894531s-4.632813-1.320313-6.3125.660156c-1.230469 1.457031-.304687 3.972656-.304687 3.972656zm0 0" fill="url(#h)"/><path d="m6.945312 6.078125c.730469 0 1.324219.59375 1.324219 1.324219 0 .730468-.59375 1.324218-1.324219 1.324218-.730468 0-1.324218-.59375-1.324218-1.324218 0-.730469.59375-1.324219 1.324218-1.324219zm0 0" fill="url(#i)"/><path d="m6.945312 6.738281c.367188 0 .664063.296875.664063.664063 0 .363281-.296875.660156-.664063.660156-.363281 0-.660156-.296875-.660156-.660156 0-.367188.296875-.664063.660156-.664063zm0 0" fill="url(#j)"/><path d="m8.464844 5.316406c-1.210938-.003906-2.476563.238282-3.199219 1.089844-.511719.609375-.652344 1.398438-.636719 2.117188.011719-.667969.167969-1.375.636719-1.929688.722656-.855469 1.988281-1.09375 3.199219-1.09375 1.414062 0 2.75.335938 3.050781.414062.039063-.105468.0625-.167968.0625-.167968s-1.507813-.429688-3.113281-.429688zm0 0" fill="#fff"/><path d="m11.457031 6.046875c-.160156.371094-.492187 1.019531-1.035156 1.59375-.652344.6875-1.816406 1.402344-3.765625 1.746094-1.03125.1875-1.695312.992187-1.695312.992187s-.296876-.8125-.332032-1.78125c-.039062 1.105469.332032 2.113282.332032 2.113282s.664062-.808594 1.695312-.992188c1.949219-.347656 3.113281-1.0625 3.765625-1.746094.816406-.863281 1.15625-1.894531 1.15625-1.894531s-.042969-.011719-.121094-.03125zm0 0" fill-opacity=".235294"/><g fill="none" stroke="#212121" stroke-width="3" transform="matrix(.031253 0 0 .031253 0 6.719392)"><path d="m158.734842 117.093287s21.24797-25.747542 54.244819-31.746969c62.369045-10.998949 99.615488-33.871765 120.488494-55.869664 26.122506-27.622363 36.996467-60.619212 36.996467-60.619212s-148.235844-42.245965-201.980711 21.122983c-39.371241 46.620548-9.749069 127.112862-9.749069 127.112862zm0 0"/><path d="m222.228778-20.518572c23.372768 0 42.370954 18.998186 42.370954 42.370954s-18.998186 42.370954-42.370954 42.370954-42.370954-18.998186-42.370954-42.370954c0-23.372768 18.998186-42.370954 42.370954-42.370954zm0 0" stroke-linecap="round" stroke-linejoin="round"/><path d="m222.228778.604411c11.748878 0 21.247971 9.499093 21.247971 21.247971 0 11.62389-9.499093 21.122983-21.247971 21.122983-11.62389 0-21.122983-9.499093-21.122983-21.122983 0-11.748878 9.499093-21.247971 21.122983-21.247971zm0 0" stroke-linecap="round" stroke-linejoin="round"/></g><path d="m6.78125 6.90625c.183594 0 .332031.148438.332031.332031 0 .179688-.148437.328125-.332031.328125s-.332031-.148437-.332031-.328125c0-.183593.148437-.332031.332031-.332031zm0 0" fill="#fff" fill-opacity=".156863"/></svg>

<?xml version="1.0" encoding="UTF-8"?>
<svg xmlns="http://www.w3.org/2000/svg" xmlns:xlink="http://www.w3.org/1999/xlink" width="16px" height="16px" viewBox="0 0 16 16" version="1.1">
<defs>
<radialGradient id="radial0" gradientUnits="userSpaceOnUse" cx="450.908936" cy="189.579361" fx="450.908936" fy="189.579361" r="21.166656" gradientTransform="matrix(0.0000000870852,-0.0390662,-0.0703192,-0.0000000507693,22.261576,31.797665)">
<stop offset="0" style="stop-color:rgb(0%,0%,0%);stop-opacity:0.313726;"/>
<stop offset="0.222222" style="stop-color:rgb(0%,0%,0%);stop-opacity:0.27451;"/>
<stop offset="1" style="stop-color:rgb(0%,0%,0%);stop-opacity:0;"/>
</radialGradient>
<radialGradient id="radial1" gradientUnits="userSpaceOnUse" cx="450.908936" cy="189.579361" fx="450.908936" fy="189.579361" r="21.166656" gradientTransform="matrix(-0.0000000870852,0.0390662,0.0703192,0.0000000507693,-6.385059,-3.763741)">
<stop offset="0" style="stop-color:rgb(0%,0%,0%);stop-opacity:0.313726;"/>
<stop offset="0.222222" style="stop-color:rgb(0%,0%,0%);stop-opacity:0.27451;"/>
<stop offset="1" style="stop-color:rgb(0%,0%,0%);stop-opacity:0;"/>
</radialGradient>
<radialGradient id="radial2" gradientUnits="userSpaceOnUse" cx="450.908936" cy="189.579361" fx="450.908936" fy="189.579361" r="21.166656" gradientTransform="matrix(-0.0000000870852,-0.0390662,0.0703192,-0.0000000507693,-6.385059,31.797665)">
<stop offset="0" style="stop-color:rgb(0%,0%,0%);stop-opacity:0.313726;"/>
<stop offset="0.222222" style="stop-color:rgb(0%,0%,0%);stop-opacity:0.27451;"/>
<stop offset="1" style="stop-color:rgb(0%,0%,0%);stop-opacity:0;"/>
</radialGradient>
<radialGradient id="radial3" gradientUnits="userSpaceOnUse" cx="450.908936" cy="189.579361" fx="450.908936" fy="189.579361" r="21.166656" gradientTransform="matrix(0.0000000870852,0.0390662,-0.0703192,0.0000000507693,22.261575,-3.763741)">
<stop offset="0" style="stop-color:rgb(0%,0%,0%);stop-opacity:0.313726;"/>
<stop offset="0.222222" style="stop-color:rgb(0%,0%,0%);stop-opacity:0.27451;"/>
<stop offset="1" style="stop-color:rgb(0%,0%,0%);stop-opacity:0;"/>
</radialGradient>
<linearGradient id="linear0" gradientUnits="userSpaceOnUse" x1="255.323059" y1="233.5" x2="255.323044" y2="254.666656" gradientTransform="matrix(0.00668003,0,0,0.031253,6.232693,6.719392)">
<stop offset="0" style="stop-color:rgb(0%,0%,0%);stop-opacity:0.27451;"/>
<stop offset="1" style="stop-color:rgb(0%,0%,0%);stop-opacity:0;"/>
</linearGradient>
<linearGradient id="linear1" gradientUnits="userSpaceOnUse" x1="254" y1="-168.666672" x2="254" y2="233.5" gradientTransform="matrix(0.031253,0,0,0.031253,0,6.719392)">
<stop offset="0" style="stop-color:rgb(30.19608%,71.372551%,67.450982%);stop-opacity:1;"/>
<stop offset="1" style="stop-color:rgb(14.901961%,65.098041%,60.392159%);stop-opacity:1;"/>
</linearGradient>
<linearGradient id="linear2" gradientUnits="userSpaceOnUse" x1="254" y1="233.5" x2="254" y2="-168.666672" gradientTransform="matrix(0.031253,0,0,0.031253,0,6.719392)">
<stop offset="0" style="stop-color:rgb(74.117649%,74.117649%,74.117649%);stop-opacity:1;"/>
<stop offset="1" style="stop-color:rgb(87.843138%,87.843138%,87.843138%);stop-opacity:1;"/>
</linearGradient>
<linearGradient id="linear3" gradientUnits="userSpaceOnUse" x1="222.25" y1="64.166664" x2="222.25" y2="-31.083334" gradientTransform="matrix(0.0357177,0,0,0.0357177,-0.992281,6.810918)">
<stop offset="0" style="stop-color:rgb(55.29412%,43.137255%,38.82353%);stop-opacity:1;"/>
<stop offset="1" style="stop-color:rgb(63.137257%,53.333336%,49.803922%);stop-opacity:1;"/>
</linearGradient>
<linearGradient id="linear4" gradientUnits="userSpaceOnUse" x1="222.25" y1="64.166664" x2="222.25" y2="-31.083334" gradientTransform="matrix(0.0178589,0,0,0.0178589,2.976842,7.106334)">
<stop offset="0" style="stop-color:rgb(25.882354%,25.882354%,25.882354%);stop-opacity:1;"/>
<stop offset="1" style="stop-color:rgb(38.039216%,38.039216%,38.039216%);stop-opacity:1;"/>
</linearGradient>
</defs>
<g id="surface1">
<path style=" stroke:none;fill-rule:nonzero;fill:url(#radial0);" d="M 9.097656 14.015625 L 10.417969 14.015625 L 10.417969 13.355469 L 9.097656 13.355469 Z M 9.097656 14.015625 "/>
<path style=" stroke:none;fill-rule:nonzero;fill:url(#radial1);" d="M 6.78125 14.015625 L 5.457031 14.015625 L 5.457031 14.679688 L 6.78125 14.679688 Z M 6.78125 14.015625 "/>
<path style=" stroke:none;fill-rule:nonzero;fill:url(#radial2);" d="M 6.78125 14.015625 L 5.457031 14.015625 L 5.457031 13.355469 L 6.78125 13.355469 Z M 6.78125 14.015625 "/>
<path style=" stroke:none;fill-rule:nonzero;fill:url(#radial3);" d="M 9.097656 14.015625 L 10.417969 14.015625 L 10.417969 14.679688 L 9.097656 14.679688 Z M 9.097656 14.015625 "/>
<path style=" stroke:none;fill-rule:nonzero;fill:url(#linear0);" d="M 6.78125 13.851562 L 9.097656 13.851562 L 9.097656 14.679688 L 6.78125 14.679688 Z M 6.78125 13.851562 "/>
<path style=" stroke:none;fill-rule:nonzero;fill:url(#linear1);" d="M 7.9375 1.449219 C 11.410156 1.449219 14.222656 4.261719 14.222656 7.734375 C 14.222656 11.203125 11.410156 14.015625 7.9375 14.015625 C 4.46875 14.015625 1.652344 11.203125 1.652344 7.734375 C 1.652344 4.261719 4.46875 1.449219 7.9375 1.449219 Z M 7.9375 1.449219 "/>
<path style=" stroke:none;fill-rule:nonzero;fill:rgb(0%,0%,0%);fill-opacity:0.196078;" d="M 7.9375 14.015625 C 4.457031 14.015625 1.652344 11.214844 1.652344 7.734375 C 1.652344 7.710938 1.652344 7.691406 1.652344 7.671875 C 1.6875 11.125 4.476562 13.894531 7.9375 13.894531 C 11.398438 13.894531 14.191406 11.125 14.222656 7.671875 C 14.222656 7.691406 14.222656 7.710938 14.222656 7.734375 C 14.222656 11.214844 11.417969 14.015625 7.9375 14.015625 Z M 7.9375 14.015625 "/>
<path style=" stroke:none;fill-rule:nonzero;fill:rgb(100%,100%,100%);fill-opacity:0.392157;" d="M 7.9375 1.449219 C 4.457031 1.449219 1.652344 4.25 1.652344 7.734375 C 1.652344 7.753906 1.652344 7.773438 1.652344 7.792969 C 1.6875 4.339844 4.476562 1.570312 7.9375 1.570312 C 11.398438 1.570312 14.191406 4.339844 14.222656 7.792969 C 14.222656 7.773438 14.222656 7.753906 14.222656 7.734375 C 14.222656 4.25 11.417969 1.449219 7.9375 1.449219 Z M 7.9375 1.449219 "/>
<path style="fill-rule:nonzero;fill:rgb(100%,100%,100%);fill-opacity:0.392157;stroke-width:3;stroke-linecap:round;stroke-linejoin:round;stroke:rgb(12.941177%,12.941177%,12.941177%);stroke-opacity:1;stroke-miterlimit:4;" d="M 327.843692 160.839109 C 332.468251 158.21436 334.593048 152.714885 332.593239 147.715362 L 282.223049 17.977752 C 279.848276 11.978325 272.598968 9.478563 267.099493 12.728253 L 230.353002 33.851236 C 224.728539 37.100926 223.353671 44.600209 227.478277 49.599732 L 314.594958 158.21436 C 317.719659 162.213978 323.344122 163.33887 327.843692 160.839109 Z M 327.843692 160.839109 " transform="matrix(0.031253,0,0,0.031253,0,6.719392)"/>
<path style="fill:none;stroke-width:3;stroke-linecap:round;stroke-linejoin:round;stroke:rgb(12.941177%,12.941177%,12.941177%);stroke-opacity:1;stroke-miterlimit:4;" d="M 180.107801 -96.011363 C 175.483242 -93.386613 173.483433 -87.887139 175.358254 -82.887616 L 225.853432 46.849995 C 228.228205 52.849422 235.352525 55.349183 240.976988 52.099493 L 277.598491 30.97651 C 283.222954 27.726821 284.597822 20.227537 280.598204 15.228014 L 193.481523 -93.386613 C 190.231834 -97.386232 184.607371 -98.511124 180.107801 -96.011363 Z M 180.107801 -96.011363 " transform="matrix(0.031253,0,0,0.031253,0,6.719392)"/>
<path style=" stroke:none;fill-rule:nonzero;fill:rgb(0%,0%,0%);fill-opacity:0.235294;" d="M 5.628906 3.71875 C 5.484375 3.800781 5.421875 3.972656 5.480469 4.128906 L 7.058594 8.183594 C 7.132812 8.371094 7.355469 8.449219 7.53125 8.347656 L 8.675781 7.6875 C 8.851562 7.585938 8.894531 7.351562 8.769531 7.195312 L 6.046875 3.800781 C 5.945312 3.675781 5.769531 3.640625 5.628906 3.71875 Z M 5.628906 3.71875 "/>
<path style=" stroke:none;fill-rule:nonzero;fill:rgb(12.941177%,12.941177%,12.941177%);fill-opacity:1;" d="M 7.9375 1.402344 C 4.429688 1.402344 1.605469 4.226562 1.605469 7.734375 C 1.605469 11.238281 4.429688 14.0625 7.9375 14.0625 C 11.445312 14.0625 14.269531 11.238281 14.269531 7.734375 C 14.269531 4.226562 11.445312 1.402344 7.9375 1.402344 Z M 7.9375 1.496094 C 11.394531 1.496094 14.175781 4.277344 14.175781 7.734375 C 14.175781 11.1875 11.394531 13.96875 7.9375 13.96875 C 4.480469 13.96875 1.699219 11.1875 1.699219 7.734375 C 1.699219 4.277344 4.480469 1.496094 7.9375 1.496094 Z M 7.9375 1.496094 "/>
<path style=" stroke:none;fill-rule:nonzero;fill:url(#linear2);" d="M 4.960938 10.378906 C 4.960938 10.378906 5.625 9.574219 6.65625 9.386719 C 8.605469 9.042969 9.769531 8.328125 10.421875 7.640625 C 11.238281 6.777344 11.578125 5.746094 11.578125 5.746094 C 11.578125 5.746094 6.945312 4.425781 5.265625 6.40625 C 4.035156 7.863281 4.960938 10.378906 4.960938 10.378906 Z M 4.960938 10.378906 "/>
<path style=" stroke:none;fill-rule:nonzero;fill:url(#linear3);" d="M 6.945312 6.078125 C 7.675781 6.078125 8.269531 6.671875 8.269531 7.402344 C 8.269531 8.132812 7.675781 8.726562 6.945312 8.726562 C 6.214844 8.726562 5.621094 8.132812 5.621094 7.402344 C 5.621094 6.671875 6.214844 6.078125 6.945312 6.078125 Z M 6.945312 6.078125 "/>
<path style=" stroke:none;fill-rule:nonzero;fill:url(#linear4);" d="M 6.945312 6.738281 C 7.3125 6.738281 7.609375 7.035156 7.609375 7.402344 C 7.609375 7.765625 7.3125 8.0625 6.945312 8.0625 C 6.582031 8.0625 6.285156 7.765625 6.285156 7.402344 C 6.285156 7.035156 6.582031 6.738281 6.945312 6.738281 Z M 6.945312 6.738281 "/>
<path style=" stroke:none;fill-rule:nonzero;fill:rgb(100%,100%,100%);fill-opacity:1;" d="M 8.464844 5.316406 C 7.253906 5.3125 5.988281 5.554688 5.265625 6.40625 C 4.753906 7.015625 4.613281 7.804688 4.628906 8.523438 C 4.640625 7.855469 4.796875 7.148438 5.265625 6.59375 C 5.988281 5.738281 7.253906 5.5 8.464844 5.5 C 9.878906 5.5 11.214844 5.835938 11.515625 5.914062 C 11.554688 5.808594 11.578125 5.746094 11.578125 5.746094 C 11.578125 5.746094 10.070312 5.316406 8.464844 5.316406 Z M 8.464844 5.316406 "/>
<path style=" stroke:none;fill-rule:nonzero;fill:rgb(0%,0%,0%);fill-opacity:0.235294;" d="M 11.457031 6.046875 C 11.296875 6.417969 10.964844 7.066406 10.421875 7.640625 C 9.769531 8.328125 8.605469 9.042969 6.65625 9.386719 C 5.625 9.574219 4.960938 10.378906 4.960938 10.378906 C 4.960938 10.378906 4.664062 9.566406 4.628906 8.597656 C 4.589844 9.703125 4.960938 10.710938 4.960938 10.710938 C 4.960938 10.710938 5.625 9.902344 6.65625 9.71875 C 8.605469 9.371094 9.769531 8.65625 10.421875 7.972656 C 11.238281 7.109375 11.578125 6.078125 11.578125 6.078125 C 11.578125 6.078125 11.535156 6.066406 11.457031 6.046875 Z M 11.457031 6.046875 "/>
<path style="fill:none;stroke-width:3;stroke-linecap:butt;stroke-linejoin:miter;stroke:rgb(12.941177%,12.941177%,12.941177%);stroke-opacity:1;stroke-miterlimit:4;" d="M 158.734842 117.093287 C 158.734842 117.093287 179.982812 91.345745 212.979661 85.346318 C 275.348706 74.347369 312.595149 51.474553 333.468155 29.476654 C 359.590661 1.854291 370.464622 -31.142558 370.464622 -31.142558 C 370.464622 -31.142558 222.228778 -73.388523 168.483911 -10.019575 C 129.11267 36.600973 158.734842 117.093287 158.734842 117.093287 Z M 158.734842 117.093287 " transform="matrix(0.031253,0,0,0.031253,0,6.719392)"/>
<path style="fill:none;stroke-width:3;stroke-linecap:round;stroke-linejoin:round;stroke:rgb(12.941177%,12.941177%,12.941177%);stroke-opacity:1;stroke-miterlimit:4;" d="M 222.228778 -20.518572 C 245.601546 -20.518572 264.599732 -1.520386 264.599732 21.852382 C 264.599732 45.22515 245.601546 64.223336 222.228778 64.223336 C 198.85601 64.223336 179.857824 45.22515 179.857824 21.852382 C 179.857824 -1.520386 198.85601 -20.518572 222.228778 -20.518572 Z M 222.228778 -20.518572 " transform="matrix(0.031253,0,0,0.031253,0,6.719392)"/>
<path style="fill:none;stroke-width:3;stroke-linecap:round;stroke-linejoin:round;stroke:rgb(12.941177%,12.941177%,12.941177%);stroke-opacity:1;stroke-miterlimit:4;" d="M 222.228778 0.604411 C 233.977656 0.604411 243.476749 10.103504 243.476749 21.852382 C 243.476749 33.476272 233.977656 42.975365 222.228778 42.975365 C 210.604888 42.975365 201.105795 33.476272 201.105795 21.852382 C 201.105795 10.103504 210.604888 0.604411 222.228778 0.604411 Z M 222.228778 0.604411 " transform="matrix(0.031253,0,0,0.031253,0,6.719392)"/>
<path style=" stroke:none;fill-rule:nonzero;fill:rgb(100%,100%,100%);fill-opacity:0.156863;" d="M 6.78125 6.90625 C 6.964844 6.90625 7.113281 7.054688 7.113281 7.238281 C 7.113281 7.417969 6.964844 7.566406 6.78125 7.566406 C 6.597656 7.566406 6.449219 7.417969 6.449219 7.238281 C 6.449219 7.054688 6.597656 6.90625 6.78125 6.90625 Z M 6.78125 6.90625 "/>
</g>
</svg>
